germany/municipalities/03459008.svg

<?xml version="1.0" encoding="UTF-8" standalone="no"?>
<!-- Created with Inkscape (http://www.inkscape.org/) -->
<svg
   xmlns:svg="http://www.w3.org/2000/svg"
   xmlns="http://www.w3.org/2000/svg"
   version="1.0"
   width="894.47382"
   height="1122.9849"
   id="svg2">
  <defs
     id="defs4" />
  <g
     transform="translate(121.25722,51.844512)"
     id="layer1">
    <g
       id="g3256">
      <path
         d="M 765.51365,-44.141587 L 765.51365,596.6798 C 765.51365,855.00407 568.49644,1063.4374 325.53787,1063.4374 C 83.462987,1063.4374 -113.5543,855.00407 -113.5543,596.6798 L -113.5543,-44.141587 L 765.51365,-44.141587"
         id="path523"
         style="opacity:1;fill:#e7e7e7;fill-opacity:1;fill-rule:evenodd;stroke:#000000;stroke-width:15.40584946;stroke-miterlimit:4;stroke-dasharray:none;stroke-opacity:1" />
      <path
         d="M -114.03139,419.6479 C -114.02953,419.65012 -114.27405,522.58624 -114.25766,522.56592 C -114.21606,522.51435 271.59091,522.19634 271.57142,522.17547 C 271.56051,522.16379 272.61388,1062.0891 272.58598,1062.0117 C 272.57372,1061.9777 372.80024,1061.7997 372.82274,1061.8938 C 372.83618,1061.95 372.35574,522.7454 372.33305,522.79528 C 372.28808,522.89411 765.39976,522.79495 765.38627,522.69124 C 765.38111,522.65152 765.87758,419.68424 765.89663,419.6479 C 765.91218,419.61827 373.69582,419.10694 373.71428,419.09459 C 373.75822,419.06519 372.90761,-43.208751 372.92828,-43.209261 C 372.94897,-43.209761 271.58459,-43.196431 271.57142,-43.209261 C 271.52231,-43.257091 271.59119,419.63984 271.57142,419.6479 C 271.54207,419.65948 -113.91364,419.64297 -114.03139,419.6479 z"
         id="path3253"
         style="opacity:1;fill:#000000;fill-opacity:1;fill-rule:nonzero;stroke:#000000;stroke-width:4.98400021;marker-mid:none;stroke-miterlimit:4;stroke-dasharray:none;stroke-opacity:1" />
      <path
         d="M 658.29966,97.326407 C 694.85552,68.992557 624.3778,35.260561 624.35816,35.267037 C 264.19023,154.04612 -0.46371287,22.101951 -0.47688287,22.089121 C -0.52599287,22.041291 -26.032867,61.903077 -26.018543,61.918909 C 80.018124,179.10818 335.06877,347.85735 658.29966,97.326407 z"
         id="path3822"
         style="opacity:1;fill:#da121a;fill-opacity:1;fill-rule:nonzero;stroke:#000000;stroke-width:4.98400021;marker-mid:none;stroke-miterlimit:4;stroke-dasharray:none;stroke-opacity:1" />
      <path
         d="M 556.8759,88.65219 C 592.02192,58.587342 450.59484,174.69775 96.821348,87.762421 C 95.863184,87.526964 305.28326,303.87131 556.8759,88.65219 z"
         id="path3364"
         style="opacity:1;fill:#e7e7e7;fill-opacity:1;fill-rule:nonzero;stroke:#000000;stroke-width:4.98400021;marker-mid:none;stroke-miterlimit:4;stroke-dasharray:none;stroke-opacity:1" />
      <rect
         width="106.49598"
         height="61.85313"
         x="269.03772"
         y="118.54276"
         id="rect3366"
         style="opacity:1;fill:#000000;fill-opacity:1;fill-rule:evenodd;stroke:none;stroke-width:5.0325923;stroke-linecap:butt;stroke-linejoin:miter;stroke-miterlimit:4;stroke-dasharray:none;stroke-opacity:1" />
      <rect
         width="52.210266"
         height="6.4959874"
         x="299.03772"
         y="175.8642"
         id="rect3368"
         style="opacity:1;fill:#000000;fill-opacity:1;fill-rule:evenodd;stroke:none;stroke-width:5.0325923;stroke-linecap:butt;stroke-linejoin:miter;stroke-miterlimit:4;stroke-dasharray:none;stroke-opacity:1" />
      <path
         d="M 722.04351,96.647717 C 716.22294,50.764616 665.07913,72.378277 668.10201,100.30263 C 742.48676,787.44449 315.35241,820.41508 246.12411,885.69614 C 115.23622,1009.1211 232.01956,1023.2773 246.29675,1014.0974 C 716.45526,711.79655 777.38405,532.89294 722.04351,96.647717 z"
         id="path3374"
         style="opacity:1;fill:#da121a;fill-opacity:1;fill-rule:nonzero;stroke:#000000;stroke-width:4.98400021;marker-mid:none;stroke-miterlimit:4;stroke-dasharray:none;stroke-opacity:1" />
      <g
         id="g3378">
        <g
           id="g3370">
          <path
             d="M 137.38075,90.390587 A 34.345188,31.31473 0 1 1 68.690372,90.390587 A 34.345188,31.31473 0 1 1 137.38075,90.390587 z"
             transform="matrix(1.8230437,0,0,1.9672092,501.17057,-136.77944)"
             id="path3348"
             style="opacity:1;fill:#da121a;fill-opacity:1;fill-rule:evenodd;stroke:#000000;stroke-width:2.7254436;stroke-linecap:butt;stroke-linejoin:miter;stroke-miterlimit:4;stroke-dasharray:none;stroke-opacity:1" />
          <path
             d="M 137.38075,90.390587 A 34.345188,31.31473 0 1 1 68.690372,90.390587 A 34.345188,31.31473 0 1 1 137.38075,90.390587 z"
             transform="matrix(0.9194179,0,0,0.9761357,594.27616,-47.195725)"
             id="path3350"
             style="opacity:1;fill:#e7e7e7;fill-opacity:1;fill-rule:evenodd;stroke:#000000;stroke-width:5.38342428;stroke-linecap:butt;stroke-linejoin:miter;stroke-miterlimit:4;stroke-dasharray:none;stroke-opacity:1" />
        </g>
      </g>
      <path
         d="M 338.54581,881.04348 C 268.52483,904.06146 184.44775,973.09858 237.99648,972.15126 C 262.48561,971.72929 314.34255,945.46228 322.45483,930.55256 C 345.47049,888.25166 355.72722,875.39544 338.54581,881.04348 z"
         id="path3252"
         style="opacity:1;fill:#e7e7e7;fill-opacity:1;fill-rule:nonzero;stroke:#000000;stroke-width:4.98400021;marker-mid:none;stroke-miterlimit:4;stroke-dasharray:none;stroke-opacity:1" />
      <path
         d="M -23.591992,57.521064 C -28.634378,11.545936 -68.763044,13.13568 -70.390635,41.175977 C -74.150946,105.95902 -62.898936,151.98393 -54.693695,201.06256 C -53.415705,208.7067 -89.172525,176.46063 -89.383222,184.00822 C -90.216689,213.86473 -43.543206,347.99831 -46.391484,375.05817 C -47.212926,382.86221 -80.98589,356.2341 -81.992805,363.74831 C -83.19867,372.74718 -55.905041,508.19458 -24.52254,550.18078 C -24.281684,550.50302 -62.785254,545.86681 -62.962388,547.19545 C -71.845544,613.82572 24.946463,716.23396 20.194432,717.01921 C -1.3033297,720.57159 -33.592158,720.82389 -34.004384,721.9023 C -48.661711,760.24687 69.601364,818.05101 93.045396,871.21717 C 96.253243,878.4919 42.150431,878.59107 45.995577,884.88119 C 72.462345,928.17706 188.38796,974.69948 263.64203,967.41755 C 289.99936,964.86709 331.60096,927.2476 324.9283,924.8623 C -9.0644442,805.10798 17.606413,433.15713 -23.591992,57.521064 z"
         id="path3383"
         style="opacity:1;fill:#da121a;fill-opacity:1;fill-rule:nonzero;stroke:#000000;stroke-width:4.98400021;marker-mid:none;stroke-miterlimit:4;stroke-dasharray:none;stroke-opacity:1" />
      <path
         d="M 137.38075,90.390587 A 34.345188,31.31473 0 1 1 68.690372,90.390587 A 34.345188,31.31473 0 1 1 137.38075,90.390587 z"
         transform="matrix(1,0,0,1.0967742,-138.30603,-72.242437)"
         id="path3336"
         style="opacity:1;fill:#da121a;fill-opacity:1;fill-rule:evenodd;stroke:#000000;stroke-width:4.86980486;stroke-linecap:butt;stroke-linejoin:miter;stroke-miterlimit:4;stroke-dasharray:none;stroke-opacity:1" />
      <path
         d="M 606.75374,910.4317 C 534.18102,989.33713 410.48491,999.77593 296.36285,981.61132 C 296.04614,981.5609 364.83076,935.49918 366.37704,934.22652 C 379.77245,923.20153 439.35165,953.0051 516.42213,924.7342 C 533.72909,918.38568 604.42472,856.46341 533.84807,874.19376 C 524.04419,876.6567 502.31517,890.70879 500.0269,850.6848 C 498.46549,823.37427 543.77869,828.92857 563.79243,829.39365 C 596.03193,830.14283 639.58673,874.7337 606.75374,910.4317 z"
         id="path3254"
         style="opacity:1;fill:#da121a;fill-opacity:1;fill-rule:nonzero;stroke:#000000;stroke-width:4.98400021;marker-mid:none;stroke-miterlimit:4;stroke-dasharray:none;stroke-opacity:1" />
    </g>
  </g>
</svg>

<svg xmlns="http://www.w3.org/2000/svg" version="1.0" width="894.474" height="1122.985"><path d="M765.514-44.142V596.68c0 258.324-197.018 466.757-439.976 466.757-242.075 0-439.092-208.433-439.092-466.757V-44.142h879.068" style="opacity:1;fill:#e7e7e7;fill-opacity:1;fill-rule:evenodd;stroke:#000;stroke-width:15.40584946;stroke-miterlimit:4;stroke-dasharray:none;stroke-opacity:1" transform="translate(121.257 51.845)"/><path d="M-114.031 419.648c.001.002-.243 102.938-.227 102.918.042-.052 385.849-.37 385.83-.39-.011-.012 1.042 539.913 1.014 539.836-.012-.034 100.214-.212 100.237-.118.013.056-.467-539.149-.49-539.099-.045.1 393.067 0 393.053-.104-.005-.04.492-103.007.51-103.043.016-.03-392.2-.541-392.182-.553.044-.03-.806-462.304-.786-462.304.021 0-101.343.013-101.357 0-.049-.048.02 462.849 0 462.857-.029.011-385.485-.005-385.602 0z" style="opacity:1;fill:#000;fill-opacity:1;fill-rule:nonzero;stroke:#000;stroke-width:4.98400021;marker-mid:none;stroke-miterlimit:4;stroke-dasharray:none;stroke-opacity:1" transform="translate(121.257 51.845)"/><path d="M658.3 97.326c36.556-28.333-33.922-62.065-33.942-62.059C264.19 154.047-.464 22.102-.477 22.089c-.049-.048-25.556 39.814-25.542 39.83C80.018 179.109 335.07 347.857 658.3 97.326z" style="opacity:1;fill:#da121a;fill-opacity:1;fill-rule:nonzero;stroke:#000;stroke-width:4.98400021;marker-mid:none;stroke-miterlimit:4;stroke-dasharray:none;stroke-opacity:1" transform="translate(121.257 51.845)"/><path d="M556.876 88.652c35.146-30.065-106.281 86.046-460.055-.89-.958-.235 208.462 216.11 460.055.89z" style="opacity:1;fill:#e7e7e7;fill-opacity:1;fill-rule:nonzero;stroke:#000;stroke-width:4.98400021;marker-mid:none;stroke-miterlimit:4;stroke-dasharray:none;stroke-opacity:1" transform="translate(121.257 51.845)"/><path style="opacity:1;fill:#000;fill-opacity:1;fill-rule:evenodd;stroke:none;stroke-width:5.0325923;stroke-linecap:butt;stroke-linejoin:miter;stroke-miterlimit:4;stroke-dasharray:none;stroke-opacity:1" d="M269.038 118.543h106.496v61.853H269.038z" transform="translate(121.257 51.845)"/><path style="opacity:1;fill:#000;fill-opacity:1;fill-rule:evenodd;stroke:none;stroke-width:5.0325923;stroke-linecap:butt;stroke-linejoin:miter;stroke-miterlimit:4;stroke-dasharray:none;stroke-opacity:1" d="M299.038 175.864h52.21v6.496h-52.21z" transform="translate(121.257 51.845)"/><path d="M722.044 96.648c-5.821-45.883-56.965-24.27-53.942 3.655 74.385 687.141-352.75 720.112-421.978 785.393-130.888 123.425-14.104 137.581.173 128.401 470.158-302.3 531.087-481.204 475.747-917.45z" style="opacity:1;fill:#da121a;fill-opacity:1;fill-rule:nonzero;stroke:#000;stroke-width:4.98400021;marker-mid:none;stroke-miterlimit:4;stroke-dasharray:none;stroke-opacity:1" transform="translate(121.257 51.845)"/><path d="M137.38 90.39a34.345 31.315 0 1 1-68.69 0 34.345 31.315 0 1 1 68.69 0z" transform="matrix(1.82304 0 0 1.9672 622.428 -84.935)" style="opacity:1;fill:#da121a;fill-opacity:1;fill-rule:evenodd;stroke:#000;stroke-width:2.7254436;stroke-linecap:butt;stroke-linejoin:miter;stroke-miterlimit:4;stroke-dasharray:none;stroke-opacity:1"/><path d="M137.38 90.39a34.345 31.315 0 1 1-68.69 0 34.345 31.315 0 1 1 68.69 0z" transform="matrix(.91942 0 0 .97614 715.533 4.649)" style="opacity:1;fill:#e7e7e7;fill-opacity:1;fill-rule:evenodd;stroke:#000;stroke-width:5.38342428;stroke-linecap:butt;stroke-linejoin:miter;stroke-miterlimit:4;stroke-dasharray:none;stroke-opacity:1"/><path d="M338.546 881.043c-70.021 23.018-154.098 92.056-100.55 91.108 24.49-.422 76.347-26.689 84.459-41.598 23.015-42.301 33.272-55.158 16.09-49.51z" style="opacity:1;fill:#e7e7e7;fill-opacity:1;fill-rule:nonzero;stroke:#000;stroke-width:4.98400021;marker-mid:none;stroke-miterlimit:4;stroke-dasharray:none;stroke-opacity:1" transform="translate(121.257 51.845)"/><path d="M-23.592 57.521c-5.042-45.975-45.171-44.385-46.799-16.345-3.76 64.783 7.492 110.808 15.697 159.887 1.278 7.644-34.479-24.602-34.69-17.055-.833 29.857 45.84 163.99 42.993 191.05-.822 7.804-34.595-18.824-35.602-11.31-1.206 9 26.088 144.447 57.47 186.433.241.322-38.262-4.314-38.44-2.986-8.883 66.63 87.91 169.039 83.157 169.824-21.497 3.553-53.786 3.805-54.198 4.883-14.658 38.345 103.605 96.149 127.05 149.315 3.207 7.275-50.896 7.374-47.05 13.664 26.466 43.296 142.392 89.818 217.646 82.537 26.357-2.55 67.959-40.17 61.286-42.556C-9.064 805.108 17.606 433.157-23.592 57.522z" style="opacity:1;fill:#da121a;fill-opacity:1;fill-rule:nonzero;stroke:#000;stroke-width:4.98400021;marker-mid:none;stroke-miterlimit:4;stroke-dasharray:none;stroke-opacity:1" transform="translate(121.257 51.845)"/><path d="M137.38 90.39a34.345 31.315 0 1 1-68.69 0 34.345 31.315 0 1 1 68.69 0z" transform="matrix(1 0 0 1.09677 -17.049 -20.398)" style="opacity:1;fill:#da121a;fill-opacity:1;fill-rule:evenodd;stroke:#000;stroke-width:4.86980486;stroke-linecap:butt;stroke-linejoin:miter;stroke-miterlimit:4;stroke-dasharray:none;stroke-opacity:1"/><path d="M606.754 910.432c-72.573 78.905-196.27 89.344-310.391 71.18-.317-.051 68.468-46.113 70.014-47.385 13.395-11.025 72.975 18.778 150.045-9.493 17.307-6.348 88.003-68.27 17.426-50.54-9.804 2.463-31.533 16.515-33.821-23.51-1.562-27.31 43.752-21.755 63.765-21.29 32.24.749 75.795 45.34 42.962 81.038z" style="opacity:1;fill:#da121a;fill-opacity:1;fill-rule:nonzero;stroke:#000;stroke-width:4.98400021;marker-mid:none;stroke-miterlimit:4;stroke-dasharray:none;stroke-opacity:1" transform="translate(121.257 51.845)"/></svg>
